X:80
T:Saturday night and Sunday morn
R:Jig
M:6/8
L:1/8
Q:110
K:D
f|fed g2A|eee e2g|fed g2A|ddd d2:|
c|B>AG FED|eee e2c|B>AG FED|ddd d2:|

